remix/Design/hammer-fill.svg

<svg viewBox="0 0 24 24" fill="currentColor" xmlns="http://www.w3.org/2000/svg"><path d="M17 8V2H20C20.5523 2 21 2.44772 21 3V7C21 7.55228 20.5523 8 20 8H17ZM15 22C15 22.5523 14.5523 23 14 23H10C9.44772 23 9 22.5523 9 22V8H2.5V6.07437C2.5 5.7187 2.68891 5.3898 2.99613 5.21059L8.5 2H15V22Z"/></svg>

<svg viewBox="0 0 24 24" xmlns="http://www.w3.org/2000/svg"><path fill="none" d="M0 0h24v24H0Z"/><path d="M17 8V2h3v0c.55 0 1 .44 1 1v4 0c0 .55-.45 1-1 1h-3Zm-2 14v0c0 .55-.45 1-1 1h-4v0c-.56 0-1-.45-1-1V8H2.5V6.07v0c0-.36.18-.69.49-.87l5.504-3.22h6.5v20Z"/></svg>
